apps/trade/public/tokens/comp.svg

<svg width="24" height="24" viewBox="0 0 24 24" fill="none" xmlns="http://www.w3.org/2000/svg">
<g clip-path="url(#clip0_10299_48193)">
<path d="M12 24C18.6276 24 24 18.6276 24 12C24 5.3724 18.6276 0 12 0C5.3724 0 0 5.3724 0 12C0 18.6276 5.3724 24 12 24Z" fill="#070A0E"/>
<path fill-rule="evenodd" clip-rule="evenodd" d="M6.9324 16.0236C6.5736 15.804 6.354 15.414 6.354 14.994V12.6492C6.354 12.3708 6.5808 12.1452 6.8592 12.1464C6.948 12.1464 7.0356 12.1704 7.1124 12.2148L12.4032 15.3C12.7128 15.48 12.9036 15.8112 12.9036 16.17V18.5988C12.9048 18.9324 12.6348 19.2036 12.3012 19.2036C12.1896 19.2036 12.0792 19.1724 11.9844 19.1148L6.9324 16.0236ZM14.8188 11.5728C15.1284 11.7528 15.318 12.0852 15.3192 12.4428V17.3724C15.3192 17.5176 15.2412 17.652 15.114 17.7228L13.956 18.3744C13.9416 18.3828 13.926 18.3888 13.9092 18.3936V15.6564C13.9092 15.3024 13.7232 14.9736 13.4184 14.7912L8.772 12.012V8.92199C8.772 8.64359 8.9988 8.41799 9.2772 8.41919C9.366 8.41919 9.4536 8.44319 9.5304 8.48759L14.8188 11.5728ZM17.1348 7.93199C17.4456 8.11199 17.6364 8.44439 17.6364 8.80319V16.0032C17.6352 16.1508 17.5536 16.2864 17.424 16.3572L16.326 16.95V11.9376C16.326 11.5836 16.14 11.256 15.8376 11.0736L11.088 8.22479V5.29439C11.088 5.20559 11.112 5.11799 11.1552 5.04119C11.2956 4.80119 11.604 4.71959 11.844 4.85879L17.1348 7.93199Z" fill="#00D395"/>
</g>
<defs>
<clipPath id="clip0_10299_48193">
<rect width="24" height="24" fill="white"/>
</clipPath>
</defs>
</svg>

<svg width="24" height="24" fill="none" xmlns="http://www.w3.org/2000/svg">
    <g clip-path="url(#a)">
        <path d="M12 24c6.628 0 12-5.372 12-12S18.628 0 12 0 0 5.372 0 12s5.372 12 12 12Z" fill="#070A0E"/>
        <path fill-rule="evenodd" clip-rule="evenodd" d="M6.932 16.024a1.208 1.208 0 0 1-.578-1.03v-2.345a.503.503 0 0 1 .758-.434l5.291 3.085c.31.18.5.511.5.87v2.429a.603.603 0 0 1-.919.516l-5.052-3.091Zm7.887-4.451c.31.18.499.512.5.87v4.93a.4.4 0 0 1-.205.35l-1.158.651a.202.202 0 0 1-.047.02v-2.738c0-.354-.186-.682-.49-.865l-4.647-2.779v-3.09a.503.503 0 0 1 .758-.434l5.289 3.085Zm2.316-3.641c.31.18.501.512.501.871v7.2a.408.408 0 0 1-.212.354l-1.098.593v-5.012a1.01 1.01 0 0 0-.488-.864l-4.75-2.85v-2.93a.505.505 0 0 1 .756-.436l5.29 3.074Z" fill="#00D395"/>
    </g>
    <defs>
        <clipPath id="a">
            <path fill="#fff" d="M0 0h24v24H0z"/>
        </clipPath>
    </defs>
</svg>
